X: 139034
T: SADDLE THE PONY
Q: "Irish Jig."
R: Jig.
%R: jig
B: James Kerr "Merry Melodies" v.1 p.39 s.0 #34
Z: 2016 John Chambers <jc:trillian.mit.edu>
M: 6/8
L: 1/8
K: D
|:\
def ddB | AFA AFA | def ddA | Bee edB |\
def ddB | AFA AFA | gfe fdB | AFE EFA :|
|:\
BFF ADD | FEF AFD | BFF ADA | AFD EFA |\
BFF ADD | FEF AFD | gfe fdB | AFE EFA :|

%%sep 1 1 500
%%sep 1 1 500

